X: 3
T: String Quartet No. 1 in F Major, Op. 18, No. 1 mvt 3
C: Ludwig van Beethoven
%%abc-version 2.0
%%abcx-abcm2ps-target-version 5.9.1 (29 Sep 2008)
%%abc-creator hum2abc beta
%%abcx-conversion-date 2021/01/27 10:01:09
%%abc-edited-by Craig Stuart Sapp
%%abcx-initial-encoding-date 2004/09/06/
%%gracespace 0 6 6
%%humdrum-veritas 3786302692
%%humdrum-veritas-data 1066780504
%%linebreak <none>
%%barnumbers 0
L: 1/4
M: 3/4
N: Derived from quartet01-3.krn
Q: "Scherzo: Allegro molto" 3/4=108
%%staves [1 2 3 4]
V: 1 clef=treble
V: 2 clef=treble
V: 3 clef=alto
V: 4 clef=bass
K: F
[V:1] F3- [I:setbarnb 2]| 
[V:2] C3- | 
[V:3] A,3 | 
[V:4] .F,,.A,,.B,, | 
[V:1] F.E.^F | 
[V:2] C2.D | 
[V:3] G,2.C | 
[V:4] C,2B,,/A,,/ | 
[V:1] G3- | 
[V:2] D3- | 
[V:3] B,3 | 
[V:4] .G,,.B,,.C, | 
[V:1] G.^F.^G | 
[V:2] D2.E | 
[V:3] A,2.D | 
[V:4] D,2C,/=B,,/ | 
[V:1] A2=B | 
[V:2] E2^G | 
[V:3] C2E- | 
[V:4] A,,C,E, | 
[V:1] czz | 
[V:2] .Azz | 
[V:3] Ezz | 
[V:4] .A,zz | 
[V:1] d3 | 
[V:2] =B3 | 
[V:3] F3 | 
[V:4] G,3 | 
[V:1] {/c2d2}ezz | 
[V:2] {/A2=B2}czz | 
[V:3] Ezz | 
[V:4] Czz | 
[V:1] D3 | 
[V:2] =B,3 | 
[V:3] F,3 | 
[V:4] G,,3 | 
[V:1] {/C2D2}Czz :|]  
[V:2] {/A,2=B,2}Czz :|]  
[V:3] {/E,2F,2}E,zz :|]  
[V:4] C,zz :|]  
[V:1] c2_e | 
[V:2] C2_A | 
[V:3] _E2.E | 
[V:4] _A,2C | 
[V:1] _e_d.d | 
[V:2] G2.G | 
[V:3] _E2B, | 
[V:4] B,2_E, | 
[V:1] _dc.c | 
[V:2] G_A.A | 
[V:3] B,_A,.A, | 
[V:4] _A,2_A,, | 
[V:1] _A2c | 
[V:2] C2.F | 
[V:3] C2.C | 
[V:4] F,2_A, | 
[V:1] cB.B | 
[V:2] E2.E | 
[V:3] C2.C | 
[V:4] G,2C, | 
[V:1] B_A.A | 
[V:2] EF.F | 
[V:3] C2.C | 
[V:4] F,2F,, | 
[V:1] f3- | 
[V:2] _d3- | 
[V:3] ._D.F._G | 
[V:4] z3 | 
[V:1] f._e.f | 
[V:2] d.c.=d | 
[V:3] ._Azz | 
[V:4] _A,2_G,/F,/ | 
[V:1] _g3- | 
[V:2] _e3- | 
[V:3] ._E._G._A | 
[V:4] _E,zz | 
[V:1] g.f.=g | 
[V:2] e.d.=e | 
[V:3] .Bzz | 
[V:4] B,2_A,/G,/ | 
[V:1] _a3- | 
[V:2] f3- | 
[V:3] .F._A.B | 
[V:4] .F,._A,.B, | 
[V:1] a.g._a | 
[V:2] f.e.f | 
[V:3] c2B/_A/ | 
[V:4] C2B,/_A,/ | 
[V:1] b3- | 
[V:2] g3- | 
[V:3] GFE | 
[V:4] G,F,E, | 
[V:1] b_a.a | 
[V:2] gf.f | 
[V:3] F_D=B, | 
[V:4] F,_D,=B,, | 
[V:1] gz{/=b}.c' | 
[V:2] ezz | 
[V:3] .C.cz | 
[V:4] .C,.Cz | 
[V:1] _az{/=b}.c' | 
[V:2] fzz | 
[V:3] .C.cz | 
[V:4] .C,.Cz | 
[V:1] gz{/=b}.c' | 
[V:2] ezz | 
[V:3] .C.cz | 
[V:4] .C,.Cz | 
[V:1] _az{/=b}.c' | 
[V:2] Fzz | 
[V:3] .C.cz | 
[V:4] .C,.Cz | 
[V:1] gzz | 
[V:2] .C.E.F | 
[V:3] .Ezz | 
[V:4] .C,zz | 
[V:1] .C.E.F | 
[V:2] .Gzz | 
[V:3] .E,.C.D | 
[V:4] .G,.E,.D, | 
[V:1] .Gzz | 
[V:2] .c.e.f | 
[V:3] .Ezz | 
[V:4] .C,zz | 
[V:1] .c.e.f | 
[V:2] .gzz | 
[V:3] .B,.G,.F, | 
[V:4] .G,,.E,,.D,, | 
[V:1] .gzz | 
[V:2] .E.G.A | 
[V:3] .E,zz | 
[V:4] .C,,zz | 
[V:1] .E.G.A | 
[V:2] .Bzz | 
[V:3] .B.G.F | 
[V:4] .G,.E,.D, | 
[V:1] .Bzz | 
[V:2] .e.g.a | 
[V:3] .Ezz | 
[V:4] .C,zz | 
[V:1] zEE | 
[V:2] .bG,G, | 
[V:3] zCC | 
[V:4] .C,.B,,.G,, | 
[V:1] F3- | 
[V:2] A,2_A, | 
[V:3] C2D- | 
[V:4] .F,,.A,,.=B,, | 
[V:1] F.E.^F | 
[V:2] G,2C- | 
[V:3] D.C.D | 
[V:4] C,2B,,/A,,/ | 
[V:1] G3- | 
[V:2] C=B,_B, | 
[V:3] D2E- | 
[V:4] G,,.=B,,.^C, | 
[V:1] G.^F.^G | 
[V:2] A,2D- | 
[V:3] E.D.E | 
[V:4] D,2C,/=B,,/ | 
[V:1] A2=B | 
[V:2] DC^G | 
[V:3] E2E- | 
[V:4] A,,C,E, | 
[V:1] .czz | 
[V:2] .Azz | 
[V:3] .Ezz | 
[V:4] .A,zz | 
[V:1] d2e | 
[V:2] A2^c | 
[V:3] F2A | 
[V:4] D,F,A, | 
[V:1] .fzz | 
[V:2] .dzz | 
[V:3] .Azz | 
[V:4] .Dzz | 
[V:1] f2g | 
[V:2] c2e | 
[V:3] A2c | 
[V:4] F,A,C | 
[V:1] .azz | 
[V:2] .fzz | 
[V:3] .czz | 
[V:4] .Fzz | 
[V:1] g3 | 
[V:2] e3 | 
[V:3] B3 | 
[V:4] C3 | 
[V:1] {/f2g2}azz | 
[V:2] {/d2e2}fzz | 
[V:3] Azz | 
[V:4] Fzz | 
[V:1] G3 | 
[V:2] E3 | 
[V:3] B,3 | 
[V:4] C,3 | 
[V:1] {/F2G2}Fzz | 
[V:2] {/D2E2}Fzz | 
[V:3] {/A,2B,2}A,zz | 
[V:4] F,zz | 
[V:1] zE2 | 
[V:2] zB,2 | 
[V:3] G,3 | 
[V:4] G,,3 | 
[V:1] F.c.c | 
[V:2] A,zz | 
[V:3] {/F,2G,2}F,zz | 
[V:4] {/F,,2G,,2}F,,zz | 
[V:1] zE2 | 
[V:2] zB,2 | 
[V:3] G,3 | 
[V:4] G,,3 | 
[V:1] F.f.f | 
[V:2] A,zz | 
[V:3] {/F,2G,2}F,zz | 
[V:4] {/F,,2G,,2}F,,zz | 
[V:1] zE2 | 
[V:2] zB,2 | 
[V:3] G,3 | 
[V:4] G,,3 | 
[V:1] F.c'.c' | 
[V:2] A,.c.c | 
[V:3] {/F,2G,2}F,zz | 
[V:4] {/F,,2G,,2}F,,zz | 
[V:1] _e3 | 
[V:2] ._E3 | 
[V:3] C,^FF | 
[V:4] A,,A,A, | 
[V:1] {/d2_e2}dzz | 
[V:2] {/D2_E2}Dzz | 
[V:3] GDD | 
[V:4] B,B,,B,, | 
[V:1] ezz | 
[V:2] Ezz | 
[V:3] zB,B, | 
[V:4] zC,C, | 
[V:1] fc'c' | 
[V:2] F.c.c | 
[V:3] A,zz | 
[V:4] F,zz | 
[V:1] _e3 | 
[V:2] ._E3 | 
[V:3] C,^FF | 
[V:4] A,,A,A, | 
[V:1] {/d2_e2}dzz | 
[V:2] {/D2_E2}Dzz | 
[V:3] GDD | 
[V:4] B,B,,B,, | 
[V:1] ezz | 
[V:2] Ezz | 
[V:3] zB,B, | 
[V:4] zC,C, | 
[V:1] f3- | 
[V:2] A2_A | 
[V:3] .A,.C.D | 
[V:4] .F,.A,.=B, | 
[V:1] f.e.^f | 
[V:2] G2c | 
[V:3] E2D/C/ | 
[V:4] C2B,/A,/ | 
[V:1] g3- | 
[V:2] .B.de- | 
[V:3] .D.B.A | 
[V:4] .G,B,.^C | 
[V:1] g.^f.^g | 
[V:2] e.d.d | 
[V:3] A2.E | 
[V:4] D2C/=B,/ | 
[V:1] a3- | 
[V:2] c^cd | 
[V:3] EA=B | 
[V:4] A,GF | 
[V:1] a3- | 
[V:2] efg | 
[V:3] ^cde | 
[V:4] ED^C | 
[V:1] .aab | 
[V:2] .f^fg | 
[V:3] d_ED | 
[V:4] .DCB, | 
[V:1] c'd'_e' | 
[V:2] abc' | 
[V:3] CB,A, | 
[V:4] A,G,^F, | 
[V:1] d'ba | 
[V:2] bg=f | 
[V:3] B,B=B | 
[V:4] G,B,=B, | 
[V:1] .gd'c' | 
[V:2] .eba | 
[V:3] cE,F, | 
[V:4] .CE,,F,, | 
[V:1] bag | 
[V:2] gfe | 
[V:3] G,A,B, | 
[V:4] G,,A,,B,, | 
[V:1] fed | 
[V:2] dcB | 
[V:3] CDE | 
[V:4] C,D,E, | 
[V:1] cBA | 
[V:2] AEF | 
[V:3] FCC | 
[V:4] F,G,A, | 
[V:1] GB.E | 
[V:2] DG.B, | 
[V:3] B,.B,.G, | 
[V:4] B,,G,,.C, | 
[V:1] .F.A.=B | 
[V:2] .A,.A,=B, | 
[V:3] .A,z_A,- | 
[V:4] .F,,zF,- | 
[V:1] c3 | 
[V:2] C3 | 
[V:3] A,.G,.E, | 
[V:4] F,.E,.C, | 
[V:1] .f.a.=b | 
[V:2] .F.A=B | 
[V:3] =A,z_A,- | 
[V:4] F,zF,,- | 
[V:1] c'3- | 
[V:2] c3- | 
[V:3] A,.G,.E, | 
[V:4] .F,,.E,,.C,, | 
[V:1] c'c'2- | 
[V:2] cc2- | 
[V:3] .=A,.G,.E, | 
[V:4] .F,,.E,,.C,, | 
[V:1] c'c'2- | 
[V:2] cc2- | 
[V:3] .A,.G.E | 
[V:4] .F,,.E,.C, | 
[V:1] .c'.a.a | 
[V:2] c.A.A | 
[V:3] .A.C.C | 
[V:4] .F,.F,,.F,, | 
[V:1] .fzz :|]  
[V:2] .Fzz :|]  
[V:3] .A,zz :|]  
[V:4] .F,,zz :|]  
[V:1] {/=B}.cz.C | 
[V:2] {/=B}.cz.C | 
[V:3] .Cz.C, | 
[V:4] .C,z.C,, | 
[V:1] {/=B}.cz.C | 
[V:2] {/=B}.cz.C | 
[V:3] .Cz.C, | 
[V:4] .C,z.C,, | 
[V:1] {/=B}.c.C.c | 
[V:2] {/=B}.c.Cc | 
[V:3] .C.C,.C | 
[V:4] .C,.C,,.C, | 
[V:1] .C.c.C | 
[V:2] .C.c.C | 
[V:3] .C,.C.C, | 
[V:4] .C,,.C,.C,, | 
[V:1] _D/_E/D/C/D/E/ | 
[V:2] [_A,3F3] | 
[V:3] _D,3 | 
[V:4] _D,,3 | 
[V:1] F/_G/_A/B/c/_d/ | 
[V:2] [_A,3F3]- | 
[V:3] _D3- | 
[V:4] _D,,3- | 
[V:1] _e/f/_g/f/e/_d/ | 
[V:2] [A,3F3]- | 
[V:3] D3- | 
[V:4] D,,3- | 
[V:1] c/B/_A/_G/F/_E/ | 
[V:2] [A,2F2].[_A,_G] | 
[V:3] D2.C | 
[V:4] D,,2-.D,, | 
[V:1] _D/_E/D/C/D/F/ | 
[V:2] [_A,3F3] | 
[V:3] _D3 | 
[V:4] _D,,3 | 
[V:1] F/_G/_A/B/c/_d/ | 
[V:2] [_A,3F3]- | 
[V:3] _D3- | 
[V:4] _D,,3- | 
[V:1] _e/f/_g/f/e/_d/ | 
[V:2] [A,3F3]- | 
[V:3] D3- | 
[V:4] D,,3- | 
[V:1] c/B/_A/_G/F/_E/ | 
[V:2] [A,2-F2].[A,_G] | 
[V:3] D2.C | 
[V:4] D,,2_D,, | 
[V:1] _D/F/E/F/E/F/ | 
[V:2] .[_A,F]._D.D | 
[V:3] ._D.D.D | 
[V:4] ._D,,._D,.D, | 
[V:1] _D/F/C/F/=B,/F/ | 
[V:2] _DC=B, | 
[V:3] _DC=B, | 
[V:4] _D,C,=B,, | 
[V:1] C/F/_A/c/C/c/ | 
[V:2] CzC | 
[V:3] CzC, | 
[V:4] C,zC,, | 
[V:1] Fzz :|]  
[V:2] Fzz :|]  
[V:3] F,zz :|]  
[V:4] F,,zz :|]  
[V:1] _e3- | 
[V:2] =A3- | 
[V:3] .Fz.F, | 
[V:4] z3 | 
[V:1] e3- | 
[V:2] A3- | 
[V:3] .Fz.F, | 
[V:4] z3 | 
[V:1] e3- | 
[V:2] A3- | 
[V:3] .F.F,.F | 
[V:4] z3 | 
[V:1] e3 | 
[V:2] A3 | 
[V:3] .F,.F.F, | 
[V:4] z3 | 
[V:1] =d3- | 
[V:2] _A3- | 
[V:3] F3- | 
[V:4] .B,z.B,, | 
[V:1] d3- | 
[V:2] A3- | 
[V:3] F3- | 
[V:4] .B,z.B,, | 
[V:1] d3- | 
[V:2] A3- | 
[V:3] F3- | 
[V:4] .B,.B,,.B, | 
[V:1] d3 | 
[V:2] A3 | 
[V:3] F3 | 
[V:4] .B,,.B,.B,, | 
[V:1] _d3 | 
[V:2] B3- | 
[V:3] .G.G,.G | 
[V:4] z3 | 
[V:1] [G3c3]- | 
[V:2] B3 | 
[V:3] z3 | 
[V:4] .=E,.=E,,E, | 
[V:1] [G3c3] | 
[V:2] _A3 | 
[V:3] .F.F,.F | 
[V:4] z3 | 
[V:1] [F3c3] | 
[V:2] A3 | 
[V:3] z3 | 
[V:4] .F,.F,,.F, | 
[V:1] [Ec]zz | 
[V:2] Gzz | 
[V:3] .Cz.C, | 
[V:4] .C,z.C,, | 
[V:1] z3 | 
[V:2] z3 | 
[V:3] .Cz.C, | 
[V:4] .C,z.C,, | 
[V:1] z3 | 
[V:2] z3 | 
[V:3] .C.C,.C | 
[V:4] .C,.C,,.C, | 
[V:1] z3 | 
[V:2] z3 | 
[V:3] .C,.C.C, | 
[V:4] .C,,.C,.C,, | 
[V:1] {/B}.cz.C | 
[V:2] {/=B}.cz.C | 
[V:3] .Cz.C, | 
[V:4] .C,z.C,, | 
[V:1] {/B}.cz.C | 
[V:2] {/=B}.cz.C | 
[V:3] .Cz.C, | 
[V:4] .C,z.C,, | 
[V:1] {/B}.c.C.c | 
[V:2] {/=B}.c.C.c | 
[V:3] .C.C,.C | 
[V:4] .C,.C,,.C, | 
[V:1] .^C.^c.C | 
[V:2] .^C.^c.C | 
[V:3] .^C,.^C.C, | 
[V:4] .^C,,.^C,.C,, | 
[V:1] D/G/B/G/d/B/ | 
[V:2] D3 | 
[V:3] D,3 | 
[V:4] D,,3 | 
[V:1] g/d/b/a/g/f/ | 
[V:2] B,3- | 
[V:3] [D,3G,3]- | 
[V:4] D,,3- | 
[V:1] _e/d/c/B/A/G/ | 
[V:2] B,3- | 
[V:3] [D,3G,3]- | 
[V:4] D,,3- | 
[V:1] ^F/G/F/G/A/F/ | 
[V:2] B,2.C | 
[V:3] [D,2-G,2].[D,A,] | 
[V:4] D,,2-.D,, | 
[V:1] D/G/B/G/d/B/ | 
[V:2] B,3 | 
[V:3] [D,3G,3] | 
[V:4] D,,3 | 
[V:1] g/d/b/a/g/f/ | 
[V:2] B,3- | 
[V:3] [D,3G,3]- | 
[V:4] D,,3- | 
[V:1] _e/d/c/B/A/G/ | 
[V:2] B,3- | 
[V:3] [D,3G,3]- | 
[V:4] D,,3- | 
[V:1] ^F/G/F/G/A/F/ | 
[V:2] B,2.C | 
[V:3] [D,2G,2][D,A,] | 
[V:4] D,,2-.D,, | 
[V:1] G,/ =B/d/B/f/d/ | 
[V:2] =B,3 | 
[V:3] D,3 | 
[V:4] G,,3 | 
[V:1] =b/f/d'/c'/b/a/ | 
[V:2] =B,3- | 
[V:3] D,3- | 
[V:4] G,,3- | 
[V:1] g/f/e/d/f/d/ | 
[V:2] B,3- | 
[V:3] D,3- | 
[V:4] G,,3- | 
[V:1] c/=B/d/B/c/e/ | 
[V:2] B,2.C | 
[V:3] D,2.E, | 
[V:4] G,,2-.G,, | 
[V:1] G,/ =B/d/B/f/d/ | 
[V:2] =B,3 | 
[V:3] D,3 | 
[V:4] G,,3 | 
[V:1] =b/f/d'/c'/b/a/ | 
[V:2] =B,3- | 
[V:3] D,3- | 
[V:4] G,,3- | 
[V:1] g/f/e/d/f/d/ | 
[V:2] B,3- | 
[V:3] D,3- | 
[V:4] G,,3- | 
[V:1] c/=B/d/B/c/e/ | 
[V:2] B,2.C | 
[V:3] D,2.E, | 
[V:4] G,,2.C, | 
[V:1] C/ c/e/c/g/e/ | 
[V:2] [G,3E3] | 
[V:3] C,3 | 
[V:4] C,,3 | 
[V:1] b/a/g/f/e/d/ | 
[V:2] [G,3E3]- | 
[V:3] C,3- | 
[V:4] C,,3- | 
[V:1] c/B/A/G/B/G/ | 
[V:2] [G,3E3]- | 
[V:3] C,3- | 
[V:4] C,,3- | 
[V:1] F/E/G/E/F/A/ | 
[V:2] [G,2E2].[A,F] | 
[V:3] C,2.C | 
[V:4] C,,2.C, | 
[V:1] C/c/e/c/g/e/ | 
[V:2] [G,3E3] | 
[V:3] C,3 | 
[V:4] C,,3 | 
[V:1] b/a/g/f/e/d/ | 
[V:2] [G,3E3]- | 
[V:3] C,3- | 
[V:4] C,,3- | 
[V:1] c/=B/d/c/B/d/ | 
[V:2] [G,E]zz | 
[V:3] C,zz | 
[V:4] C,,zz | 
[V:1] c/=B/d/c/_B/G/ |]  
[V:2] z3 |]  
[V:3] z3 |]  
[V:4] z3 |]  


